packages/icons/raw/imported/TravelHotel.svg

<svg width="32" height="32" viewBox="0 0 32 32" fill="none" xmlns="http://www.w3.org/2000/svg">
<path d="M13.9441 27C13.9441 20.4165 13.9441 12.1418 13.9441 12.1418C13.9441 11.8466 14.0635 11.5635 14.2761 11.3548C14.4888 11.1461 14.7771 11.0288 15.0778 11.0288H24.8662C25.1669 11.0288 25.4553 11.1461 25.6679 11.3548C25.8805 11.5635 26 11.8466 26 12.1418C26 12.1418 26 20.4165 26 27" stroke="black" stroke-linecap="round" stroke-linejoin="round"/>
<path d="M6 26.9998V20.8044C6 20.5092 6.11945 20.2261 6.33208 20.0174C6.54471 19.8087 6.83309 19.6914 7.13379 19.6914H12.0166" stroke="black" stroke-linecap="round" stroke-linejoin="round"/>
<path d="M17.7762 8.87323V5" stroke="black" stroke-miterlimit="10" stroke-linecap="round"/>
<path d="M22.1641 8.87323V5" stroke="black" stroke-miterlimit="10" stroke-linecap="round"/>
<path d="M21.9826 6.93652H17.9727" stroke="black" stroke-miterlimit="10" stroke-linecap="round"/>
<path d="M16.1927 13.9077H23.7475" stroke="black" stroke-miterlimit="10" stroke-linecap="round"/>
<path d="M16.1927 16.7793H23.7475" stroke="black" stroke-miterlimit="10" stroke-linecap="round"/>
<path d="M16.1927 19.6543H23.7475" stroke="black" stroke-miterlimit="10" stroke-linecap="round"/>
<path d="M16.1927 22.5259H23.7475" stroke="black" stroke-miterlimit="10" stroke-linecap="round"/>
<path d="M16.1927 25.3975H23.7475" stroke="black" stroke-miterlimit="10" stroke-linecap="round"/>
<path d="M8.08237 22.5259H12.0128" stroke="black" stroke-miterlimit="10" stroke-linecap="round"/>
<path d="M8.08237 25.3975H12.0128" stroke="black" stroke-miterlimit="10" stroke-linecap="round"/>
</svg>

<svg width="32" height="32" fill="none" xmlns="http://www.w3.org/2000/svg"><path d="M13.944 27V12.142c0-.295.12-.579.332-.787.213-.209.501-.326.802-.326h9.788c.3 0 .59.117.802.326.213.208.332.492.332.787V27M6 27v-6.196c0-.295.12-.578.332-.787.213-.208.501-.326.802-.326h4.883" stroke="#000" stroke-linecap="round" stroke-linejoin="round"/><path d="M17.776 8.873V5M22.164 8.873V5M21.983 6.937h-4.01M16.193 13.908h7.554M16.193 16.78h7.554M16.193 19.654h7.554M16.193 22.526h7.554M16.193 25.398h7.554M8.082 22.526h3.93M8.082 25.398h3.93" stroke="#000" stroke-miterlimit="10" stroke-linecap="round"/></svg>
